Numix/64x64/categories/applications-geology.svg

<?xml version="1.0" encoding="UTF-8" standalone="no"?>
<svg
   xmlns:dc="http://purl.org/dc/elements/1.1/"
   xmlns:cc="http://creativecommons.org/ns#"
   xmlns:rdf="http://www.w3.org/1999/02/22-rdf-syntax-ns#"
   xmlns:svg="http://www.w3.org/2000/svg"
   xmlns="http://www.w3.org/2000/svg"
   xmlns:sodipodi="http://sodipodi.sourceforge.net/DTD/sodipodi-0.dtd"
   xmlns:inkscape="http://www.inkscape.org/namespaces/inkscape"
   width="64"
   height="64"
   viewBox="0 0 64 64"
   id="svg2"
   version="1.1"
   inkscape:version="0.91 r"
   sodipodi:docname="applications-geology.svg">
  <metadata
     id="metadata22">
    <rdf:RDF>
      <cc:Work
         rdf:about="">
        <dc:format>image/svg+xml</dc:format>
        <dc:type
           rdf:resource="http://purl.org/dc/dcmitype/StillImage" />
        <dc:title></dc:title>
      </cc:Work>
    </rdf:RDF>
  </metadata>
  <defs
     id="defs20" />
  <sodipodi:namedview
     pagecolor="#ffffff"
     bordercolor="#666666"
     borderopacity="1"
     objecttolerance="10"
     gridtolerance="10"
     guidetolerance="10"
     inkscape:pageopacity="0"
     inkscape:pageshadow="2"
     inkscape:window-width="1920"
     inkscape:window-height="1056"
     id="namedview18"
     showgrid="true"
     inkscape:zoom="5.2149125"
     inkscape:cx="-0.93600372"
     inkscape:cy="54.594958"
     inkscape:window-x="0"
     inkscape:window-y="24"
     inkscape:window-maximized="1"
     inkscape:current-layer="svg2">
    <inkscape:grid
       type="xygrid"
       id="grid4150" />
  </sodipodi:namedview>
  <g
     id="g6"
     style="fill:#a47854;fill-rule:evenodd;stroke:#a47854;stroke-width:1.0004977;stroke-linejoin:round"
     transform="matrix(2.0993263,0,0,2.1014591,-1.2653365,-1.2744804)">
    <path
       inkscape:connector-curvature="0"
       id="path8"
       transform="scale(0.1237,0.1237)"
       d="m 30.725798,148.1975 c 38.27304,-0.53683 53.778042,-5.24201 65.525213,-8.87353 11.778749,-3.6631 29.210039,-11.49454 29.210039,-11.49454 l 44.02031,89.84059 -138.755562,0 z"
       style="stroke-width:5.42069674" />
    <path
       inkscape:connector-curvature="0"
       id="path10"
       transform="scale(0.1237,0.1237)"
       d="m 157.29209,182.08114 c 0,0 -19.76809,10.95771 -25.45221,13.73661 -7.86302,3.82099 -21.41016,14.11556 -45.157129,21.47333 l -55.641169,0 0,-43.894 c 32.146827,-1.01051 55.293806,-1.98944 69.693568,-8.02092 14.36817,-6.03148 41.46245,-20.08387 41.46245,-20.08387 z"
       style="stroke-width:6.12604761" />
    <path
       inkscape:connector-curvature="0"
       id="path12"
       transform="scale(0.1237,0.1237)"
       d="m 132.53461,142.1976 c 20.84175,-20.90491 14.7787,-27.15743 35.93624,-28.98898 21.15753,-1.79997 56.80957,14.08397 56.80957,14.08397 l 0,90.31427 -55.79906,0 z"
       style="stroke-width:5.42069674" />
    <path
       inkscape:connector-curvature="0"
       id="path14"
       transform="scale(0.1237,0.1237)"
       d="m 224.61727,184.10216 c 0,0 -4.98939,-2.62101 -11.46297,-5.36833 -6.37884,-2.65259 -11.49454,-3.97888 -23.08382,-0.66315 -7.83144,2.24207 -14.36818,7.23146 -27.72585,17.2734 l -17.1155,-43.04138 c 13.29452,-11.96822 23.77855,-20.39966 37.13622,-21.41017 13.38925,-1.01051 24.41011,1.35787 31.13632,4.67361 6.69462,3.34731 10.45245,5.68411 10.45245,5.68411 z"
       style="stroke-width:6.12604761" />
  </g>
  <path
     inkscape:connector-curvature="0"
     id="path16"
     d="m 7.6168782,7.00001 48.7662438,0 C 56.720348,7.00001 57,7.279662 57,7.616888 l 0,48.766224 c 0,0.337226 -0.279652,0.616878 -0.616878,0.616878 l -48.7662438,0 C 7.2796516,56.99999 7,56.720338 7,56.383112 L 7,7.616888 C 7,7.279662 7.2796516,7.00001 7.6168782,7.00001 Z"
     style="fill:none;stroke:#a47854;stroke-width:2;stroke-linecap:round;stroke-miterlimit:4;stroke-dasharray:none" />
</svg>

<svg width="64" xmlns="http://www.w3.org/2000/svg" height="64" viewBox="0 0 64 64" xmlns:xlink="http://www.w3.org/1999/xlink">
<g style="stroke:#a47854">
<g style="fill:#a47854;fill-rule:evenodd;stroke-linejoin:round">
<path style="stroke-width:5.418" d="M 30.710009 148.181715 C 68.998838 147.660671 84.50384 142.939698 96.2668 139.30818 C 108.029759 135.660873 125.476834 127.813637 125.476834 127.813637 L 169.481356 217.654229 L 30.710009 217.654229 Z " transform="scale(.2474)"/>
<path style="stroke-width:6.123" d="M 157.292088 182.081144 C 157.292088 182.081144 137.524 193.054643 131.839885 195.817755 C 123.976859 199.638743 110.41393 209.917517 86.682751 217.291077 L 31.057372 217.291077 L 31.057372 173.39708 C 63.188409 172.40236 86.335388 171.39185 100.735146 165.376162 C 115.103325 159.344685 142.213394 145.29229 142.213394 145.29229 Z " transform="scale(.2474)"/>
<path style="stroke-width:5.418" d="M 132.518821 142.181816 C 153.360575 121.292694 147.313308 115.024379 168.470847 113.20862 C 189.628385 111.392861 225.296206 127.292593 225.296206 127.292593 L 225.296206 217.606861 L 169.481356 217.606861 Z " transform="scale(.2474)"/>
<path style="stroke-width:6.123" d="M 224.60148 184.102162 C 224.60148 184.102162 219.62788 181.481154 213.154305 178.733832 C 206.791254 176.081245 201.659762 174.770741 190.086272 178.086474 C 182.239036 180.312753 175.718093 185.286353 162.344634 195.344078 L 145.229133 152.318487 C 158.523646 140.334479 169.00768 131.887252 182.36535 130.892532 C 195.770387 129.897812 206.791254 132.234615 213.501667 135.581927 C 220.180502 138.91345 223.954123 141.266042 223.954123 141.266042 Z " transform="scale(.2474)"/>
</g>
<path style="fill:none;stroke-linecap:round;stroke-width:8.073" d="M 34.388895 32.020513 L 221.601531 32.020513 C 222.927824 32.020513 223.969912 33.07839 223.969912 34.388895 L 223.969912 221.601531 C 223.969912 222.927824 222.927824 223.969912 221.601531 223.969912 L 34.388895 223.969912 C 33.07839 223.969912 32.020513 222.927824 32.020513 221.601531 L 32.020513 34.388895 C 32.020513 33.07839 33.07839 32.020513 34.388895 32.020513 Z " transform="scale(.2474)"/>
</g>
</svg>
